X: 14055
T: MAX MUSIC
C: Bob McQuillen April'09
B: Bob's Note Book 14 #55
%R: reel
%D:2009
Z: 2020 John Chambers <jc:trillian.mit.edu>
M: C
L: 1/8
K: A
ef \
| afea f2af | ecAc B2cB | AcBA FEAB | cecA B2ef |
| afea fecf | ecAc BcAB | cABA FEAc | ecBc A2 :|
|: AB \
| cABA FEAB | cecA F2AF | EFAB ceae | faec B2AB |
| cBce fecB | A2cA BAFA | EFAF Acec | BABc A2 :|
%%begintext align
%% Max Nunemacher sure
%% rates a tune. In the first place, he's a good friend of Lisa
%% Sieverts; in the second place, he's a regular at the
%% Monday Night Dance in Nelson (so's Lisa!), so it's
%% obvious (to me at least!) that you ought to have a tune,
%% Max, so here it is! I hope it works for you!
%%endtext

%%sep 1 1 500

%%sep 1 1 500

